svg/set/SCD/R.svg

<?xml version="1.0" encoding="UTF-8" standalone="no"?>
<!-- Generator: Adobe Illustrator 15.1.0, SVG Export Plug-In . SVG Version: 6.00 Build 0)  -->

<svg
   version="1.1"
   id="Layer_1"
   x="0px"
   y="0px"
   width="138.80499"
   height="150"
   viewBox="0 0 138.80499 150"
   enable-background="new 0 0 150 156"
   xml:space="preserve"
   xmlns="http://www.w3.org/2000/svg"
   xmlns:svg="http://www.w3.org/2000/svg"><defs
   id="defs25" />
<g
   id="g25"
   transform="translate(-5.486,-2.643)">
	<polygon
   points="5.486,38.309 38.603,22.451 50.486,2.643 99.291,2.643 111.175,22.451 144.291,38.309 139.565,69.258 139.565,95.229 74.889,152.643 10.212,95.229 10.212,69.258 "
   id="polygon1" />
	<linearGradient
   id="SVGID_1_"
   gradientUnits="userSpaceOnUse"
   x1="12.3008"
   y1="76.599602"
   x2="137.47659"
   y2="76.599602">
		<stop
   offset="0"
   style="stop-color:#8D742F"
   id="stop1" />
		<stop
   offset="0.0689"
   style="stop-color:#967D38"
   id="stop2" />
		<stop
   offset="0.1809"
   style="stop-color:#AE954F"
   id="stop3" />
		<stop
   offset="0.2"
   style="stop-color:#B39A54"
   id="stop4" />
		<stop
   offset="0.2218"
   style="stop-color:#B9A059"
   id="stop5" />
		<stop
   offset="0.3022"
   style="stop-color:#CAB068"
   id="stop6" />
		<stop
   offset="0.3903"
   style="stop-color:#D4BA71"
   id="stop7" />
		<stop
   offset="0.5"
   style="stop-color:#D7BD74"
   id="stop8" />
		<stop
   offset="0.6097"
   style="stop-color:#D4BA71"
   id="stop9" />
		<stop
   offset="0.6978"
   style="stop-color:#CAB068"
   id="stop10" />
		<stop
   offset="0.7782"
   style="stop-color:#B9A059"
   id="stop11" />
		<stop
   offset="0.8"
   style="stop-color:#B39A54"
   id="stop12" />
		<stop
   offset="0.8571"
   style="stop-color:#A38A45"
   id="stop13" />
		<stop
   offset="0.938"
   style="stop-color:#937A35"
   id="stop14" />
		<stop
   offset="1"
   style="stop-color:#8D742F"
   id="stop15" />
	</linearGradient>
	<polygon
   fill="url(#SVGID_1_)"
   points="12.301,41.911 42.953,27.232 53.993,8.836 95.784,8.836 106.824,27.232 137.477,41.911 133.372,68.788 133.372,92.446 74.889,144.363 16.405,92.446 16.405,68.788 "
   id="polygon15"
   style="fill:url(#SVGID_1_)" />
	<path
   d="M 101.985,32.545 91.888,15.716 H 57.89 l -10.098,16.829 -27.92,13.369 3.414,22.351 v 21.09 l 51.603,45.809 51.603,-45.809 v -21.09 l 3.414,-22.351 z M 59.836,19.156 H 89.94 l 8.681,14.465 -23.73,31.97 -23.72,-31.99 z M 76.61,71.021 121.613,89.084 76.608,129.037 Z M 73.169,129.037 28.164,89.084 73.169,71.021 Z M 48.634,35.955 72.18,67.712 26.726,85.955 v -17.95 l -3.068,-20.09 z m 74.418,32.05 V 85.953 L 77.601,67.712 101.165,35.966 126.12,47.915 Z"
   id="path15" />
	<path
   d="m 74.889,48.742 c -6.213,0 -11.267,-5.055 -11.267,-11.268 0,-6.212 5.054,-11.266 11.267,-11.266 6.213,0 11.267,5.054 11.267,11.266 -0.001,6.214 -5.054,11.268 -11.267,11.268 z"
   id="path16" />
	<path
   fill="#ffffff"
   d="m 74.889,45.302 c -4.315,0 -7.827,-3.512 -7.827,-7.827 0,-4.314 3.512,-7.825 7.827,-7.825 4.315,0 7.827,3.511 7.827,7.825 0,4.315 -3.512,7.827 -7.827,7.827 z"
   id="path17" />
	<path
   d="m 43.066,71.791 c -6.213,0 -11.266,-5.054 -11.266,-11.266 0,-6.213 5.053,-11.268 11.266,-11.268 6.213,0 11.267,5.055 11.267,11.268 0,6.212 -5.054,11.266 -11.267,11.266 z"
   id="path18" />
	<path
   fill="#ffffff"
   d="m 43.066,68.351 c -4.315,0 -7.827,-3.511 -7.827,-7.825 0,-4.315 3.512,-7.827 7.827,-7.827 4.315,0 7.827,3.512 7.827,7.827 10e-4,4.314 -3.511,7.825 -7.827,7.825 z"
   id="path19" />
	<path
   d="m 57.172,106.366 c -6.214,0 -11.267,-5.055 -11.267,-11.268 0,-6.213 5.053,-11.267 11.267,-11.267 6.212,0 11.267,5.054 11.267,11.267 0,6.213 -5.055,11.268 -11.267,11.268 z"
   id="path20" />
	<path
   fill="#ffffff"
   d="m 57.172,102.926 c -4.315,0 -7.827,-3.512 -7.827,-7.827 0,-4.314 3.512,-7.826 7.827,-7.826 4.314,0 7.826,3.512 7.826,7.826 0,4.315 -3.512,7.827 -7.826,7.827 z"
   id="path21" />
	<path
   d="m 106.711,71.791 c 6.213,0 11.266,-5.054 11.266,-11.266 0,-6.213 -5.053,-11.268 -11.266,-11.268 -6.213,0 -11.267,5.055 -11.267,11.268 0,6.212 5.054,11.266 11.267,11.266 z"
   id="path22" />
	<path
   fill="#ffffff"
   d="m 106.711,68.351 c 4.315,0 7.826,-3.511 7.826,-7.825 0,-4.315 -3.511,-7.827 -7.826,-7.827 -4.315,0 -7.827,3.512 -7.827,7.827 0,4.314 3.512,7.825 7.827,7.825 z"
   id="path23" />
	<path
   d="m 92.605,106.366 c 6.214,0 11.267,-5.055 11.267,-11.268 0,-6.213 -5.053,-11.267 -11.267,-11.267 -6.212,0 -11.267,5.054 -11.267,11.267 0,6.213 5.056,11.268 11.267,11.268 z"
   id="path24" />
	<path
   fill="#ffffff"
   d="m 92.605,102.926 c 4.315,0 7.827,-3.512 7.827,-7.827 0,-4.314 -3.512,-7.826 -7.827,-7.826 -4.314,0 -7.826,3.512 -7.826,7.826 0,4.315 3.512,7.827 7.826,7.827 z"
   id="path25" />
</g>
</svg>

<?xml version="1.0" encoding="utf-8"?>
<!-- Generator: Adobe Illustrator 15.1.0, SVG Export Plug-In . SVG Version: 6.00 Build 0)  -->
<!DOCTYPE svg PUBLIC "-//W3C//DTD SVG 1.1//EN" "http://www.w3.org/Graphics/SVG/1.1/DTD/svg11.dtd">
<svg version="1.1"
	 id="Layer_1" xmlns:rdf="http://www.w3.org/1999/02/22-rdf-syntax-ns#" xmlns:svg="http://www.w3.org/2000/svg" xmlns:cc="http://creativecommons.org/ns#" xmlns:dc="http://purl.org/dc/elements/1.1/"
	 xmlns="http://www.w3.org/2000/svg" xmlns:xlink="http://www.w3.org/1999/xlink" x="0px" y="0px" width="150px" height="156px"
	 viewBox="0 0 150 156" enable-background="new 0 0 150 156" xml:space="preserve">
<g>
	<polygon points="10.212,95.229 10.212,69.258 5.486,38.309 38.603,22.451 50.486,2.643 99.291,2.643 111.175,22.451 
		144.291,38.309 139.565,69.258 139.565,95.229 74.889,152.643 	"/>
	<linearGradient id="SVGID_1_" gradientUnits="userSpaceOnUse" x1="12.3008" y1="76.5996" x2="137.4766" y2="76.5996">
		<stop  offset="0" style="stop-color:#8D742F"/>
		<stop  offset="0.0689" style="stop-color:#967D38"/>
		<stop  offset="0.1809" style="stop-color:#AE954F"/>
		<stop  offset="0.2" style="stop-color:#B39A54"/>
		<stop  offset="0.2218" style="stop-color:#B9A059"/>
		<stop  offset="0.3022" style="stop-color:#CAB068"/>
		<stop  offset="0.3903" style="stop-color:#D4BA71"/>
		<stop  offset="0.5" style="stop-color:#D7BD74"/>
		<stop  offset="0.6097" style="stop-color:#D4BA71"/>
		<stop  offset="0.6978" style="stop-color:#CAB068"/>
		<stop  offset="0.7782" style="stop-color:#B9A059"/>
		<stop  offset="0.8" style="stop-color:#B39A54"/>
		<stop  offset="0.8571" style="stop-color:#A38A45"/>
		<stop  offset="0.938" style="stop-color:#937A35"/>
		<stop  offset="1" style="stop-color:#8D742F"/>
	</linearGradient>
	<polygon fill="url(#SVGID_1_)" points="16.405,92.446 16.405,68.788 12.301,41.911 42.953,27.232 53.993,8.836 95.784,8.836 
		106.824,27.232 137.477,41.911 133.372,68.788 133.372,92.446 74.889,144.363 	"/>
	<path d="M101.985,32.545L91.888,15.716H57.89L47.792,32.545l-27.92,13.369l3.414,22.351v21.09l51.603,45.809l51.603-45.809v-21.09
		l3.414-22.351L101.985,32.545z M59.836,19.156h30.104l8.681,14.465l-23.73,31.97l-23.72-31.99L59.836,19.156z M76.61,71.021
		l45.003,18.063l-45.005,39.953L76.61,71.021z M73.169,129.037L28.164,89.084l45.005-18.063V129.037z M48.634,35.955L72.18,67.712
		L26.726,85.955v-17.95l-3.068-20.09L48.634,35.955z M123.052,68.005v17.948L77.601,67.712l23.564-31.746l24.955,11.949
		L123.052,68.005z"/>
	<path d="M74.889,48.742c-6.213,0-11.267-5.055-11.267-11.268c0-6.212,5.054-11.266,11.267-11.266s11.267,5.054,11.267,11.266
		C86.155,43.688,81.102,48.742,74.889,48.742z"/>
	<path fill="#FFFFFF" d="M74.889,45.302c-4.315,0-7.827-3.512-7.827-7.827c0-4.314,3.512-7.825,7.827-7.825s7.827,3.511,7.827,7.825
		C82.716,41.79,79.204,45.302,74.889,45.302z"/>
	<path d="M43.066,71.791c-6.213,0-11.266-5.054-11.266-11.266c0-6.213,5.053-11.268,11.266-11.268s11.267,5.055,11.267,11.268
		C54.333,66.737,49.279,71.791,43.066,71.791z"/>
	<path fill="#FFFFFF" d="M43.066,68.351c-4.315,0-7.827-3.511-7.827-7.825c0-4.315,3.512-7.827,7.827-7.827s7.827,3.512,7.827,7.827
		C50.894,64.84,47.382,68.351,43.066,68.351z"/>
	<path d="M57.172,106.366c-6.214,0-11.267-5.055-11.267-11.268s5.053-11.267,11.267-11.267c6.212,0,11.267,5.054,11.267,11.267
		S63.384,106.366,57.172,106.366z"/>
	<path fill="#FFFFFF" d="M57.172,102.926c-4.315,0-7.827-3.512-7.827-7.827c0-4.314,3.512-7.826,7.827-7.826
		c4.314,0,7.826,3.512,7.826,7.826C64.998,99.414,61.486,102.926,57.172,102.926z"/>
	<path d="M106.711,71.791c6.213,0,11.266-5.054,11.266-11.266c0-6.213-5.053-11.268-11.266-11.268s-11.267,5.055-11.267,11.268
		C95.444,66.737,100.498,71.791,106.711,71.791z"/>
	<path fill="#FFFFFF" d="M106.711,68.351c4.315,0,7.826-3.511,7.826-7.825c0-4.315-3.511-7.827-7.826-7.827
		s-7.827,3.512-7.827,7.827C98.884,64.84,102.396,68.351,106.711,68.351z"/>
	<path d="M92.605,106.366c6.214,0,11.267-5.055,11.267-11.268s-5.053-11.267-11.267-11.267c-6.212,0-11.267,5.054-11.267,11.267
		S86.394,106.366,92.605,106.366z"/>
	<path fill="#FFFFFF" d="M92.605,102.926c4.315,0,7.827-3.512,7.827-7.827c0-4.314-3.512-7.826-7.827-7.826
		c-4.314,0-7.826,3.512-7.826,7.826C84.779,99.414,88.291,102.926,92.605,102.926z"/>
</g>
</svg>
